app/javascript/images/icons/phone.svg

<svg width="20" height="20" viewBox="0 0 20 20" fill="none" xmlns="http://www.w3.org/2000/svg">
<g clip-path="url(#clip0_751_61737)">
<path d="M5.77178 0.439232L6.84837 0.0952241C7.85719 -0.227127 8.93504 0.293823 9.36706 1.31256L10.2268 3.33991C10.6015 4.22336 10.3936 5.26227 9.71282 5.9084L7.8185 7.70641C7.93538 8.78189 8.29689 9.84088 8.90303 10.8834C9.50917 11.9259 10.2662 12.7907 11.1741 13.4778L13.4493 12.7191C14.3117 12.4315 15.2509 12.762 15.7799 13.5392L17.0122 15.3498C17.6272 16.2532 17.5166 17.4995 16.7535 18.2655L15.9358 19.0865C15.1219 19.9036 13.9594 20.2 12.884 19.8645C10.3451 19.0726 8.01079 16.7214 5.88101 12.8109C3.74814 8.89473 2.99539 5.57214 3.62277 2.84313C3.88676 1.69482 4.70428 0.780335 5.77178 0.439232Z" fill="#3D5D6F"/>
</g>
<defs>
<clipPath id="clip0_751_61737">
<rect width="20" height="20" fill="white"/>
</clipPath>
</defs>
</svg>

<svg width="20" height="20" viewBox="0 0 20 20" xmlns="http://www.w3.org/2000/svg">
    <path d="M5.772.44L6.848.094c1.01-.322 2.087.199 2.52 1.218l.859 2.027c.374.883.167 1.922-.514 2.568L7.819 7.706c.116 1.076.478 2.135 1.084 3.177a8.678 8.678 0 002.271 2.595l2.275-.759c.863-.287 1.802.043 2.33.82l1.233 1.81c.615.904.505 2.15-.259 2.916l-.817.822c-.814.817-1.977 1.113-3.052.777-2.539-.791-4.873-3.143-7.003-7.053-2.133-3.916-2.886-7.239-2.258-9.968C3.887 1.695 4.704.78 5.772.44z" fill="currentColor"/>
</svg>
